!!!OTL: Xiu yige shehuizhuyi haoqiancheng
!!!ARE: Asia, China,ÿHubei Jiangling
!! I, 386
!!!SCT: C2142
!!!YEM: Copyright 1995, estate of Helmut Schaffrath.
**kern
*ICvox
*Ivox
!! Mixed meters:  3/4; 2/4
*M3/4
*k[f#]
*G:
{8a
8a
16b
16dd
8b
8a
16g
16e
=1
*M2/4
8.a
16b
4a
=2
*M3/4
8g
16g
16e
8g
16a
16b
8a
16g
16e
=3
*M2/4
8.d
16e
4g}
=4
{16e
16b
16a
16g
16a
16b
8g
=5
8.a
16g
8d
8e
=6
16g
16a
16g
16e
4d
=7
16e
16d
16e
16g
4a
=8
16a
16b
8g
8a
16g
16e
=9
8d
8e
4d}
==
!!!AGN: Xiaodiao, Xiuhebao diao
!!!ONB: ESAC (Essen Associative Code) Database: SENGANSU
!!!AMT: irregular
!!!AIN: vox
!!!EED: Helmut Schaffrath
!!!EEV: 1.0
*-
